public/images/logo.svg

<svg xmlns="http://www.w3.org/2000/svg" xml:space="preserve" style="fill-rule:evenodd;clip-rule:evenodd;stroke-linejoin:round;stroke-miterlimit:2" viewBox="0 0 128 40">
  <path d="M0 71.298V54.211L71.437 22.29v20.04L22.64 62.296v.984l48.797 19.97v19.897zM136.054 0l-33.75 125.438h-18.07L117.984 0z" style="fill:#ffffff;fill-rule:nonzero" transform="translate(1 10)scale(.15944)"/>
    <path d="M142.382 114.188v-74.25h27v14.554q3.094-8.437 9.317-12.34 6.222-3.902 13.605-3.902t13.325 3.832q5.94 3.833 8.191 11.637 2.813-7.734 9.492-11.602 6.68-3.867 14.555-3.867 11.18 0 18.176 7.172t6.996 19.125v49.641h-28.125v-42.61q0-5.063-2.602-8.015-2.602-2.954-6.961-2.954-4.218 0-6.75 2.954-2.53 2.952-2.531 8.015v42.61h-26.719v-42.61q0-5.063-2.566-8.015-2.567-2.954-6.926-2.954-4.289 0-6.82 2.954-2.532 2.952-2.532 8.015v42.61z" style="fill:#ffffff" transform="translate(1 10)scale(.15944)"/>
    <path d="M297.914 115.523q-11.18 0-18.246-5.414-7.067-5.413-7.067-16.453 0-8.296 3.797-13.324 3.796-5.027 10.266-7.488 6.468-2.461 14.484-2.953 9.844-.633 13.922-2.039t4.078-4.43v-.281q0-2.462-2.285-3.903t-6.152-1.441q-8.508 0-9.282 6.75h-25.734q.913-12.657 9.984-19.477t26.157-6.82q17.226 0 26.191 6.82t8.965 19.477v49.641H319.57v-10.407h-.281q-3.657 6.61-8.965 9.176-5.309 2.566-12.41 2.566m9.14-17.507q4.57 0 8.473-2.602 3.902-2.601 3.902-7.523v-5.907q-4.008 1.407-11.25 2.672-4.289.704-6.785 2.567t-2.496 4.746q0 2.812 2.285 4.429t5.871 1.618m52.032 16.172v-74.25h27.281v13.5h.14q2.04-7.524 6.329-10.512t11.953-2.988h7.031v22.5h-10.266q-6.609 0-10.476 4.359-3.867 4.36-3.867 11.812v35.579zm61.312 0V9.422h28.125v54.703h.281l18.844-24.187h31.781l-26.156 32.625 27 41.625h-31.922l-15.75-25.665-4.078 5.063v20.602zm111.094 1.828q-9.141 0-16.137-2.743t-11.004-7.98q-4.008-5.238-4.008-12.691v-.844q0-.422.071-.914h20.32q-.562 10.335 11.391 10.336 5.836 0 10.089-2.567 4.254-2.566 4.254-6.785 0-4.359-7.734-5.976l-12.586-2.461q-19.476-3.937-19.476-18.985 0-7.804 4.57-13.675t12.375-9.106 17.648-3.234q13.36 0 21.375 5.73t8.016 15.645a26.6 26.6 0 0 1-.281 3.726h-19.196q.563-4.851-2.32-7.629t-8.086-2.777q-5.766 0-9.527 2.777-3.762 2.778-3.762 6.645 0 4.43 7.172 5.976l13.641 2.743q19.406 3.937 19.406 17.789 0 8.015-4.817 14.097-4.816 6.082-13.043 9.493-8.226 3.41-18.351 3.41m69.258-.282q-11.883 0-17.719-7.628-5.836-7.63-3.516-21.692l7.735-46.476h20.672l-7.102 42.679q-1.196 7.453 1.758 11.356T612 97.875q6.398 0 11.144-4.008 4.746-4.007 6.223-12.656l6.82-41.273h20.672l-12.3 74.25h-20.395l1.968-11.672q-4.851 6.327-11.109 9.773t-14.273 3.445m113.419-75.796-2.68 16.242h-15.19l-5.76 35.086c-.42 2.531-.2 4.277.67 5.238s2.68 1.441 5.45 1.441h7.94l-2.67 16.243h-12.02c-8.21 0-13.97-1.594-17.3-4.782s-4.43-8.156-3.31-14.906l6.33-38.32h-12.86l2.67-16.242h12.86l3.38-20.25h20.67l-3.37 20.25zm25.8 32.976-6.82 41.274h-20.74l17.36-104.766h20.75l-6.89 41.484q4.56-5.976 10.44-9.246c3.91-2.179 8.45-3.269 13.6-3.269 7.92 0 13.97 2.543 18.14 7.629s5.49 12.316 3.94 21.691l-7.73 46.477h-20.68l7.11-42.68c.79-4.969.22-8.754-1.73-11.356q-2.91-3.902-9.45-3.902c-4.27 0-7.98 1.336-11.15 4.008q-4.74 4.007-6.15 12.656" style="fill:#ffffff;fill-rule:nonzero" transform="translate(1 10)scale(.15944)"/>
</svg>

<?xml version="1.0" encoding="UTF-8" standalone="no"?>
<!DOCTYPE svg PUBLIC "-//W3C//DTD SVG 1.1//EN" "http://www.w3.org/Graphics/SVG/1.1/DTD/svg11.dtd">
<svg width="100%" height="100%" viewBox="0 0 128 40" version="1.1" xmlns="http://www.w3.org/2000/svg" xmlns:xlink="http://www.w3.org/1999/xlink" xml:space="preserve" xmlns:serif="http://www.serif.com/" style="fill-rule:evenodd;clip-rule:evenodd;stroke-linejoin:round;stroke-miterlimit:2;">
    <g transform="matrix(1,0,0,1,1,10)">
        <g transform="matrix(0.159441,0,0,0.159441,0,0)">
            <path d="M0,71.298L0,54.211L71.437,22.29L71.437,42.33L22.64,62.296L22.64,63.28L71.437,83.25L71.437,103.147L0,71.298ZM136.054,0L102.304,125.438L84.234,125.438L117.984,0L136.054,0Z" style="fill:rgb(33,65,84);fill-rule:nonzero;"/>
        </g>
        <g transform="matrix(0.159441,0,0,0.159441,0,0)">
            <path d="M142.382,114.188L142.382,39.938L169.382,39.938L169.382,54.492C171.445,48.867 174.55,44.754 178.699,42.152C182.847,39.551 187.382,38.25 192.304,38.25C197.226,38.25 201.668,39.527 205.629,42.082C209.589,44.637 212.32,48.516 213.82,53.719C215.695,48.563 218.859,44.695 223.312,42.117C227.765,39.539 232.617,38.25 237.867,38.25C245.32,38.25 251.379,40.641 256.043,45.422C260.707,50.203 263.039,56.578 263.039,64.547L263.039,114.188L234.914,114.188L234.914,71.578C234.914,68.203 234.047,65.531 232.312,63.563C230.578,61.594 228.257,60.609 225.351,60.609C222.539,60.609 220.289,61.594 218.601,63.563C216.914,65.531 216.07,68.203 216.07,71.578L216.07,114.188L189.351,114.188L189.351,71.578C189.351,68.203 188.496,65.531 186.785,63.563C185.074,61.594 182.765,60.609 179.859,60.609C177,60.609 174.726,61.594 173.039,63.563C171.351,65.531 170.507,68.203 170.507,71.578L170.507,114.188L142.382,114.188Z" style="fill:rgb(33,65,84);"/>
        </g>
        <g transform="matrix(0.159441,0,0,0.159441,0,0)">
            <path d="M297.914,115.523C290.461,115.523 284.379,113.719 279.668,110.109C274.957,106.5 272.601,101.016 272.601,93.656C272.601,88.125 273.867,83.684 276.398,80.332C278.929,76.981 282.351,74.484 286.664,72.844C290.976,71.203 295.804,70.219 301.148,69.891C307.711,69.469 312.351,68.789 315.07,67.852C317.789,66.914 319.148,65.438 319.148,63.422L319.148,63.141C319.148,61.5 318.386,60.199 316.863,59.238C315.339,58.277 313.289,57.797 310.711,57.797C305.039,57.797 301.945,60.047 301.429,64.547L275.695,64.547C276.304,56.109 279.632,49.617 285.679,45.07C291.726,40.523 300.445,38.25 311.836,38.25C323.32,38.25 332.05,40.523 338.027,45.07C344.004,49.617 346.992,56.109 346.992,64.547L346.992,114.188L319.57,114.188L319.57,103.781L319.289,103.781C316.851,108.188 313.863,111.246 310.324,112.957C306.785,114.668 302.648,115.523 297.914,115.523ZM307.054,98.016C310.101,98.016 312.925,97.148 315.527,95.414C318.129,93.68 319.429,91.172 319.429,87.891L319.429,81.984C316.757,82.922 313.007,83.813 308.179,84.656C305.32,85.125 303.058,85.981 301.394,87.223C299.73,88.465 298.898,90.047 298.898,91.969C298.898,93.844 299.66,95.32 301.183,96.398C302.707,97.477 304.664,98.016 307.054,98.016ZM359.086,114.188L359.086,39.938L386.367,39.938L386.367,53.438L386.507,53.438C387.867,48.422 389.976,44.918 392.836,42.926C395.695,40.934 399.679,39.938 404.789,39.938L411.82,39.938L411.82,62.438L401.554,62.438C397.148,62.438 393.656,63.891 391.078,66.797C388.5,69.703 387.211,73.641 387.211,78.609L387.211,114.188L359.086,114.188ZM420.398,114.188L420.398,9.422L448.523,9.422L448.523,64.125L448.804,64.125L467.648,39.938L499.429,39.938L473.273,72.563L500.273,114.188L468.351,114.188L452.601,88.523L448.523,93.586L448.523,114.188L420.398,114.188ZM531.492,116.016C525.398,116.016 520.019,115.102 515.355,113.273C510.691,111.445 507.023,108.785 504.351,105.293C501.679,101.801 500.343,97.57 500.343,92.602L500.343,91.758C500.343,91.477 500.367,91.172 500.414,90.844L520.734,90.844C520.359,97.734 524.156,101.18 532.125,101.18C536.015,101.18 539.379,100.324 542.214,98.613C545.05,96.902 546.468,94.641 546.468,91.828C546.468,88.922 543.89,86.93 538.734,85.852L526.148,83.391C513.164,80.766 506.672,74.438 506.672,64.406C506.672,59.203 508.195,54.645 511.242,50.731C514.289,46.816 518.414,43.781 523.617,41.625C528.82,39.469 534.703,38.391 541.265,38.391C550.172,38.391 557.297,40.301 562.64,44.121C567.984,47.941 570.656,53.156 570.656,59.766C570.65,61.013 570.556,62.258 570.375,63.492L551.179,63.492C551.554,60.258 550.781,57.715 548.859,55.863C546.937,54.012 544.242,53.086 540.773,53.086C536.929,53.086 533.754,54.012 531.246,55.863C528.738,57.715 527.484,59.93 527.484,62.508C527.484,65.461 529.875,67.453 534.656,68.484L548.297,71.227C561.234,73.852 567.703,79.781 567.703,89.016C567.703,94.359 566.097,99.059 562.886,103.113C559.675,107.168 555.328,110.332 549.843,112.606C544.359,114.879 538.242,116.016 531.492,116.016ZM600.75,115.734C592.828,115.734 586.922,113.191 583.031,108.106C579.14,103.02 577.968,95.789 579.515,86.414L587.25,39.938L607.922,39.938L600.82,82.617C600.023,87.586 600.609,91.371 602.578,93.973C604.547,96.574 607.687,97.875 612,97.875C616.265,97.875 619.98,96.539 623.144,93.867C626.308,91.195 628.382,86.977 629.367,81.211L636.187,39.938L656.859,39.938L644.559,114.188L624.164,114.188L626.132,102.516C622.898,106.734 619.195,109.992 615.023,112.289C610.851,114.586 606.093,115.734 600.75,115.734ZM714.169,39.938L711.489,56.18L696.299,56.18L690.539,91.266C690.119,93.797 690.339,95.543 691.209,96.504C692.079,97.465 693.889,97.945 696.659,97.945L704.599,97.945L701.929,114.188L689.909,114.188C681.699,114.188 675.939,112.594 672.609,109.406C669.279,106.219 668.179,101.25 669.299,94.5L675.629,56.18L662.769,56.18L665.439,39.938L678.299,39.938L681.679,19.688L702.349,19.688L698.979,39.938L714.169,39.938ZM739.969,72.914L733.149,114.188L712.409,114.188L729.769,9.422L750.519,9.422L743.629,50.906C746.669,46.922 750.149,43.84 754.069,41.66C757.979,39.481 762.519,38.391 767.669,38.391C775.589,38.391 781.639,40.934 785.809,46.02C789.979,51.106 791.299,58.336 789.749,67.711L782.019,114.188L761.339,114.188L768.449,71.508C769.239,66.539 768.669,62.754 766.719,60.152C764.779,57.551 761.629,56.25 757.269,56.25C752.999,56.25 749.289,57.586 746.119,60.258C742.959,62.93 740.909,67.148 739.969,72.914Z" style="fill:rgb(33,65,84);fill-rule:nonzero;"/>
        </g>
    </g>
</svg>
